StripePaymentSheet/StripePaymentSheet/Resources/StripePaymentSheet.xcassets/Carousel/carousel_card_discover.imageset/discoverLight.svg

<svg fill="none" height="40" viewBox="0 0 56 40" width="56" xmlns="http://www.w3.org/2000/svg" xmlns:xlink="http://www.w3.org/1999/xlink"><clipPath id="a"><path d="m0 0h56v40h-56z"/></clipPath><g clip-path="url(#a)"><g fill="#231f20"><path d="m2.54514 15.3435h-2.54514v8.9028h2.5314c1.34642 0 2.31845-.316 3.1737-1.0304.5013-.4158.90556-.9363 1.18444-1.5249.27887-.5886.4256-1.2311.42989-1.8824 0-2.6241-1.96124-4.4651-4.77429-4.4651zm2.0265 6.6771c-.54612.4912-1.25368.7076-2.37341.7076h-.48086v-5.8666h.48086c1.11973 0 1.79981.2027 2.37341.7213.3071.2831.55138.6274.71704 1.0108s.24902.7973.24469 1.2149c.00098.4172-.0839.83-.24935 1.2129s-.40794.7277-.71238 1.0128z"/><path d="m9.85088 15.3572h-1.73455v8.8891h1.73455z"/><path d="m14.0824 18.7782c-1.0304-.395-1.3395-.6492-1.3395-1.13 0-.5599.5461-.9858 1.2949-.9858.2725.0061.54.0742.7823.1992.2422.1249.4528.3035.6156.5221l.9068-1.1884c-.7165-.6387-1.6438-.9898-2.6036-.9858-1.5834 0-2.7821 1.0923-2.7821 2.5383 0 1.2227.5599 1.8513 2.1879 2.4352.4143.1325.8155.3027 1.1988.5084.1593.0947.291.2296.382.3911s.1381.344.1366.5294c-.0015.1721-.0381.3421-.1075.4997-.0694.1575-.1702.2993-.2962.4166s-.2745.2077-.4366.2657-.3343.0824-.5061.0716c-.396.0052-.785-.1038-1.1207-.3139-.3356-.2102-.6036-.5126-.7719-.871l-1.1197 1.0785c.8003 1.1712 1.7586 1.6899 3.0913 1.6899 1.8032 0 3.0672-1.1953 3.0672-2.9161-.0137-1.4048-.5976-2.0437-2.5795-2.7547z"/><path d="m17.1943 19.8087c-.0046.615.1139 1.2248.3487 1.7932.2347.5685.581 1.0842 1.0183 1.5168.4373.4325.9568.773 1.5279 1.0015.571.2285 1.182.3403 1.797.3288.7555.0011 1.5005-.1767 2.1742-.5187v-2.0436c-.687.6869-1.3052.9754-2.0918.9754-1.7482 0-2.9882-1.2674-2.9882-3.0672-.0128-.3921.0525-.7828.1922-1.1494.1396-.3665.3508-.7017.6212-.9859.2705-.2841.5947-.5117.954-.6693.3592-.1577.7462-.2422 1.1384-.2489.8278 0 1.4529.2954 2.1742.9995v-2.0539c-.6551-.3535-1.3886-.5365-2.133-.5324-.617-.0077-1.2295.1068-1.8021.337-.5725.2302-1.0939.5714-1.5339 1.0041s-.79.9482-1.0298 1.5168-.3646 1.1791-.3673 1.7962z"/><path d="m37.8096 21.3268-2.3699-5.9696h-1.8926l3.7714 9.1193h.9342l3.8401-9.1193h-1.8788z"/><path d="m42.8759 24.2463h4.9185v-1.5044h-3.184v-2.4009h3.0672v-1.5044h-3.0672v-1.975h3.184v-1.5044h-4.9185z"/><path d="m54.6605 17.9814c0-1.6659-1.1472-2.6379-3.1394-2.6379h-2.5726v8.9028h1.7174v-3.5721h.2267l2.4043 3.5721h2.1329l-2.7958-3.7507c1.3086-.2611 2.0265-1.1541 2.0265-2.5142zm-3.4829 1.4838h-.5049v-2.7066h.5324c1.0854 0 1.6899.4499 1.6899 1.3327 0 .8827-.6045 1.3739-1.7174 1.3739z"/></g><path d="m34.0657 19.8086c-.0007.9347-.2785 1.8481-.7982 2.6248-.5197.7768-1.2581 1.382-2.1218 1.7392-.8636.3572-1.8138.4503-2.7304.2676-.9165-.1828-1.7583-.6332-2.419-1.2943-.6606-.6611-1.1104-1.5032-1.2925-2.4199-.182-.9167-.0882-1.8668.2696-2.7302s.9636-1.6013 1.7407-2.1205 1.6908-.7963 2.6254-.7963c.6209 0 1.2358.1224 1.8094.3601s1.0948.5862 1.5337 1.0254.787.9606 1.0243 1.5345c.2373.5738.3592 1.1887.3588 1.8096z" fill="#ee7623"/><path d="m55.5879 15.5324c0-.1546-.1099-.2404-.2954-.2404h-.2542v.7797h.1889v-.3023l.2164.3023h.2302l-.2577-.3195c.05-.0105.0946-.0383.1261-.0785.0314-.0402.0476-.0903.0457-.1413zm-.3435.1065h-.0309v-.2027h.0344c.0893 0 .1373.0309.1373.0996s-.0343.1031-.127.1031z" fill="#231f20"/><path d="m55.3268 15c-.1358 0-.2686.0403-.3816.1158s-.201.1827-.253.3083c-.052.1255-.0656.2636-.0391.3969.0265.1332.0919.2556.188.3517s.2185.1615.3517.188c.1333.0265.2714.0129.3969-.0391.1256-.052.2328-.14.3083-.253s.1158-.2458.1158-.3817c0-.1821-.0724-.3569-.2012-.4857s-.3036-.2012-.4858-.2012zm0 1.2399c-.1451-.0018-.2837-.0609-.3853-.1645-.1017-.1037-.1583-.2433-.1573-.3885-.0023-.0728.01-.1454.0362-.2134.0262-.0681.0657-.1301.1163-.1826s.1112-.0944.1782-.1231.139-.0437.2119-.0441c.1461.0036.2848.0648.3859.1704.101.1055.1562.2468.1534.3928.0009.1446-.0552.2837-.1561.3873-.1009.1035-.2386.163-.3832.1657z" fill="#231f20"/></g></svg>

<svg width="56" height="40" viewBox="0 0 56 40" fill="none" xmlns="http://www.w3.org/2000/svg">
<g clip-path="url(#clip0_34_407)">
<path d="M2.54514 15.3435H0V24.2463H2.5314C3.87782 24.2463 4.84985 23.9303 5.7051 23.2159C6.2064 22.8001 6.61066 22.2796 6.88954 21.691C7.16841 21.1024 7.31514 20.4599 7.31943 19.8086C7.31943 17.1845 5.35819 15.3435 2.54514 15.3435ZM4.57164 22.0206C4.02552 22.5118 3.31796 22.7282 2.19823 22.7282H1.71737V16.8616H2.19823C3.31796 16.8616 3.99804 17.0643 4.57164 17.5829C4.87874 17.866 5.12302 18.2103 5.28868 18.5937C5.45434 18.9771 5.5377 19.391 5.53337 19.8086C5.53435 20.2258 5.44947 20.6386 5.28402 21.0215C5.11857 21.4044 4.87608 21.7492 4.57164 22.0343V22.0206Z" fill="#231F20"/>
<path d="M9.85088 15.3572H8.11633V24.2463H9.85088V15.3572Z" fill="#231F20"/>
<path d="M14.0824 18.7782C13.052 18.3832 12.7429 18.129 12.7429 17.6482C12.7429 17.0883 13.289 16.6624 14.0378 16.6624C14.3103 16.6685 14.5778 16.7366 14.8201 16.8616C15.0623 16.9865 15.2729 17.1651 15.4357 17.3837L16.3425 16.1953C15.626 15.5566 14.6987 15.2055 13.7389 15.2095C12.1555 15.2095 10.9568 16.3018 10.9568 17.7478C10.9568 18.9705 11.5167 19.5991 13.1447 20.183C13.559 20.3155 13.9602 20.4857 14.3435 20.6914C14.5028 20.7861 14.6345 20.921 14.7255 21.0825C14.8165 21.244 14.8636 21.4265 14.8621 21.6119C14.8606 21.784 14.824 21.954 14.7546 22.1116C14.6852 22.2691 14.5844 22.4109 14.4584 22.5282C14.3324 22.6455 14.1839 22.7359 14.0218 22.7939C13.8597 22.8519 13.6875 22.8763 13.5157 22.8655C13.1197 22.8707 12.7307 22.7617 12.395 22.5516C12.0594 22.3414 11.7914 22.039 11.6231 21.6806L10.5034 22.7591C11.3037 23.9303 12.262 24.449 13.5947 24.449C15.3979 24.449 16.6619 23.2537 16.6619 21.5329C16.6482 20.1281 16.0643 19.4892 14.0824 18.7782Z" fill="#231F20"/>
<path d="M17.1943 19.8087C17.1897 20.4237 17.3082 21.0335 17.543 21.6019C17.7777 22.1704 18.124 22.6861 18.5613 23.1187C18.9986 23.5512 19.5181 23.8917 20.0892 24.1202C20.6602 24.3487 21.2712 24.4605 21.8862 24.449C22.6417 24.4501 23.3867 24.2723 24.0604 23.9303V21.8867C23.3734 22.5736 22.7552 22.8621 21.9686 22.8621C20.2204 22.8621 18.9804 21.5947 18.9804 19.7949C18.9676 19.4028 19.0329 19.0121 19.1726 18.6455C19.3122 18.279 19.5234 17.9438 19.7938 17.6596C20.0643 17.3755 20.3885 17.1479 20.7478 16.9903C21.107 16.8326 21.494 16.7481 21.8862 16.7414C22.714 16.7414 23.3391 17.0368 24.0604 17.7409V15.687C23.4053 15.3335 22.6718 15.1505 21.9274 15.1546C21.3104 15.1469 20.6979 15.2614 20.1253 15.4916C19.5528 15.7218 19.0314 16.063 18.5914 16.4957C18.1514 16.9284 17.8014 17.4439 17.5616 18.0125C17.3218 18.5811 17.197 19.1916 17.1943 19.8087V19.8087Z" fill="#231F20"/>
<path d="M37.8096 21.3268L35.4397 15.3572H33.5471L37.3185 24.4765H38.2527L42.0928 15.3572H40.214L37.8096 21.3268Z" fill="#231F20"/>
<path d="M42.8759 24.2463H47.7944V22.7419H44.6104V20.341H47.6776V18.8366H44.6104V16.8616H47.7944V15.3572H42.8759V24.2463Z" fill="#231F20"/>
<path d="M54.6605 17.9814C54.6605 16.3155 53.5133 15.3435 51.5211 15.3435H48.9485V24.2463H50.6659V20.6742H50.8926L53.2969 24.2463H55.4298L52.634 20.4956C53.9426 20.2345 54.6605 19.3415 54.6605 17.9814ZM51.1776 19.4652H50.6727V16.7586H51.2051C52.2905 16.7586 52.895 17.2085 52.895 18.0913C52.895 18.974 52.2905 19.4652 51.1776 19.4652Z" fill="#231F20"/>
<path d="M34.0657 19.8086C34.065 20.7433 33.7872 21.6567 33.2675 22.4334C32.7478 23.2102 32.0094 23.8154 31.1457 24.1726C30.2821 24.5298 29.3319 24.6229 28.4153 24.4402C27.4988 24.2574 26.657 23.807 25.9963 23.1459C25.3357 22.4848 24.8859 21.6427 24.7038 20.726C24.5218 19.8093 24.6156 18.8592 24.9734 17.9958C25.3312 17.1324 25.937 16.3945 26.7141 15.8753C27.4912 15.3561 28.4049 15.079 29.3395 15.079C29.9604 15.079 30.5753 15.2014 31.1489 15.4391C31.7225 15.6768 32.2437 16.0253 32.6826 16.4645C33.1215 16.9037 33.4696 17.4251 33.7069 17.999C33.9442 18.5728 34.0661 19.1877 34.0657 19.8086V19.8086Z" fill="#EE7623"/>
<path d="M55.5879 15.5324C55.5879 15.3778 55.478 15.292 55.2925 15.292H55.0383V16.0717H55.2272V15.7694L55.4436 16.0717H55.6738L55.4161 15.7522C55.4661 15.7417 55.5107 15.7139 55.5422 15.6737C55.5736 15.6335 55.5898 15.5834 55.5879 15.5324ZM55.2444 15.6389H55.2135V15.4362H55.2479C55.3372 15.4362 55.3852 15.4671 55.3852 15.5358C55.3852 15.6045 55.3509 15.6389 55.2582 15.6389H55.2444Z" fill="#231F20"/>
<path d="M55.3268 15C55.191 15 55.0582 15.0403 54.9452 15.1158C54.8322 15.1913 54.7442 15.2985 54.6922 15.4241C54.6402 15.5496 54.6266 15.6877 54.6531 15.821C54.6796 15.9542 54.745 16.0766 54.8411 16.1727C54.9372 16.2688 55.0596 16.3342 55.1928 16.3607C55.3261 16.3872 55.4642 16.3736 55.5897 16.3216C55.7153 16.2696 55.8225 16.1816 55.898 16.0686C55.9735 15.9556 56.0138 15.8228 56.0138 15.6869C56.0138 15.5048 55.9414 15.33 55.8126 15.2012C55.6838 15.0724 55.509 15 55.3268 15V15ZM55.3268 16.2399C55.1817 16.2381 55.0431 16.179 54.9415 16.0754C54.8398 15.9717 54.7832 15.8321 54.7842 15.6869C54.7819 15.6141 54.7942 15.5415 54.8204 15.4735C54.8466 15.4054 54.8861 15.3434 54.9367 15.2909C54.9873 15.2384 55.0479 15.1965 55.1149 15.1678C55.1819 15.1391 55.2539 15.1241 55.3268 15.1237C55.4729 15.1273 55.6116 15.1885 55.7127 15.2941C55.8137 15.3996 55.8689 15.5409 55.8661 15.6869C55.867 15.8315 55.8109 15.9706 55.71 16.0742C55.6091 16.1777 55.4714 16.2372 55.3268 16.2399V16.2399Z" fill="#231F20"/>
</g>
<defs>
<clipPath id="clip0_34_407">
<rect width="56" height="40" fill="white"/>
</clipPath>
</defs>
</svg>
